public/static/img/user/success.svg

<svg width="111" height="88" viewBox="0 0 111 88" fill="none" xmlns="http://www.w3.org/2000/svg">
<g clip-path="url(#clip0_520_6437)">
<path d="M10.7587 70.2734L11.7102 72.8937L14.3304 73.8295L11.7102 74.7653L10.7587 77.3856L9.80734 74.7653L7.18706 73.8295L9.80734 72.8937L10.7587 70.2734Z" fill="#00A609" fill-opacity="0.5"/>
<path d="M33.4585 18.3989L28.7014 11.4894L29.5125 9.96094L33.0685 10.1481L33.4585 18.3989Z" fill="#00A609" fill-opacity="0.5"/>
<path d="M31.696 19.4588L25.0985 18.2422L24.693 16.9165L26.7986 15.0137L31.696 19.4588Z" fill="#00A609" fill-opacity="0.5"/>
<path d="M34.5502 17.3068L35.0493 11.38L36.1723 10.8965L38.0284 12.5965L34.5502 17.3068Z" fill="#00A609" fill-opacity="0.5"/>
<path d="M93.3662 71.7389L92.9762 71.6921L92.6331 71.5362L92.3368 71.3178L92.1184 71.0215L91.9468 70.5535L91.9156 70.2884L91.9624 69.8985L92.1184 69.5553L92.3368 69.259L92.6331 69.0406L93.101 68.8691L93.3662 68.8379L93.7561 68.8847L94.0992 69.0406L94.3956 69.259L94.6139 69.5553L94.7855 70.0233L94.8167 70.2884L94.7231 70.8031L94.6139 71.0215L94.3956 71.3178L94.0992 71.5362L93.7561 71.6921L93.3662 71.7389ZM93.3662 69.6645L93.1166 69.7113L92.9139 69.8517L92.7735 70.0544L92.7267 70.304L92.7735 70.5535L92.9139 70.7563L93.1166 70.8967L93.3662 70.9435L93.6157 70.8967L93.8185 70.7563L93.9588 70.5535L94.0056 70.304L93.9588 70.0544L93.8185 69.8517L93.6157 69.7113L93.3662 69.6645Z" fill="#00A609" fill-opacity="0.5"/>
<path d="M21.0433 34.1505L20.9965 34.7276L20.8406 35.2579L20.6066 35.7414L20.2947 36.1937L19.9204 36.5681L19.468 36.88L18.9845 37.114L18.4543 37.2699L17.8772 37.3167L17.3001 37.2699L16.7698 37.114L16.2863 36.88L15.834 36.5681L15.4597 36.1937L15.1477 35.7414L14.9138 35.2579L14.7578 34.7276L14.711 34.1505L14.7578 33.5735L14.9138 33.0432L15.1477 32.5597L15.4597 32.1074L15.834 31.733L16.2863 31.4211L16.7698 31.1871L17.3001 31.0312L17.8772 30.9844L18.4543 31.0312L18.9845 31.1871L19.468 31.4211L19.9204 31.733L20.2947 32.1074L20.6066 32.5597L20.8406 33.0432L20.9965 33.5735L21.0433 34.1505Z" fill="#00A609" fill-opacity="0.5"/>
<path d="M80.8263 23.6389L83.041 19.1002L83.2438 18.8039L83.4933 18.5855L83.8053 18.4296L84.1328 18.3672L84.4603 18.3828L84.9126 18.5388L85.209 18.7415L85.4273 18.9911L85.5833 19.2874L85.6457 19.6149L85.6301 19.9425L85.5209 20.2856L83.3062 24.8555L83.1034 25.1518L82.8538 25.3702L82.5419 25.5262L82.2144 25.5886L81.8868 25.573L81.4345 25.417L81.1382 25.2142L80.9198 24.9647L80.7639 24.6527L80.7015 24.3252L80.7171 23.9977L80.8263 23.6389Z" fill="#00A609" fill-opacity="0.5"/>
<path d="M85.6145 26.4612L90.278 24.5115L90.6367 24.418H90.9642L91.2918 24.5115L91.5881 24.6831L91.8221 24.9171L92.0092 25.229L92.1496 25.6813V26.0244L92.056 26.352L91.8845 26.6483L91.6505 26.8823L91.3386 27.0694L86.6751 29.0191L86.3164 29.1126H85.9888L85.6613 29.0191L85.365 28.8475L85.131 28.6135L84.897 28.1924L84.8035 27.8337V27.5062L84.897 27.1786L85.0686 26.8823L85.3026 26.6483L85.6145 26.4612Z" fill="#00A609" fill-opacity="0.5"/>
<path d="M88.032 52.5236L88.0008 54.0209L87.8916 55.4714L87.7201 56.9063L87.5017 58.3256L87.2054 59.7138L86.7531 61.4294L86.2072 63.0983L85.5677 64.736L84.8502 66.3112L84.0392 67.8553L83.1502 69.3371L82.1832 70.7564L81.1382 72.1289L80.0308 73.439L78.8454 74.6868L77.5977 75.8721L76.2875 76.9795L74.915 78.0245L73.4957 78.9915L72.014 79.8806L70.4699 80.6916L68.8946 81.409L67.2569 82.0485L65.5881 82.5944L63.8724 83.0467L62.4843 83.3431L61.065 83.5614L59.6301 83.733L58.1795 83.8422L56.6822 83.8734L55.1849 83.8422L53.7344 83.733L52.2995 83.5614L50.8802 83.3431L49.4921 83.0467L47.7764 82.5944L46.1075 82.0485L44.4699 81.409L42.8946 80.6916L41.3505 79.8806L39.8688 78.9915L38.4495 78.0245L37.0769 76.9795L35.7668 75.8721L34.519 74.6868L33.3337 73.439L32.2263 72.1289L31.1813 70.7564L30.2143 69.3371L29.3253 67.8553L28.5142 66.3112L27.7968 64.736L27.1573 63.0983L26.6114 61.4294L26.1591 59.7138L25.8628 58.3256L25.6444 56.9063L25.4728 55.4714L25.3637 54.0209L25.3325 52.5236L25.3637 51.0263L25.4728 49.5758L25.6444 48.1409L25.8628 46.7215L26.1591 45.3334L26.6114 43.6178L27.1573 41.9489L27.7968 40.3112L28.5142 38.7359L29.3253 37.1918L30.2143 35.7101L31.1813 34.2908L32.2263 32.9183L33.3337 31.6082L34.519 30.3604L35.7668 29.175L37.0769 28.0677L38.4495 27.0227L39.8688 26.0557L41.3505 25.1666L42.8946 24.3556L44.4699 23.6381L46.1075 22.9987L47.7764 22.4528L49.4921 22.0005L50.8802 21.7041L52.2995 21.4858L53.7344 21.3142L55.1849 21.205L56.6822 21.1738L58.1795 21.205L59.6301 21.3142L61.065 21.4858L62.4843 21.7041L63.8724 22.0005L65.5881 22.4528L67.2569 22.9987L68.8946 23.6381L70.4699 24.3556L72.014 25.1666L73.4957 26.0557L74.915 27.0227L76.2875 28.0677L77.5977 29.175L78.8454 30.3604L80.0308 31.6082L81.1382 32.9183L82.1832 34.2908L83.1502 35.7101L84.0392 37.1918L84.8502 38.7359L85.5677 40.3112L86.2072 41.9489L86.7531 43.6178L87.2054 45.3334L87.5017 46.7215L87.7201 48.1409L87.8916 49.5758L88.0008 51.0263L88.032 52.5236Z" fill="url(#paint0_linear_520_6437)"/>
<path d="M63.6073 21.9537L61.9228 21.6105L60.2071 21.3766L58.4603 21.2206L56.6666 21.1738L55.1693 21.205L53.7188 21.3142L52.2839 21.4858L50.8646 21.7041L49.4765 22.0005L47.7608 22.4528L46.0919 22.9987L44.4543 23.6381L42.879 24.3556L41.3349 25.1666L39.8532 26.0557L38.4339 27.0227L37.0613 28.0677L35.7512 29.175L34.5035 30.3604L33.3181 31.6082L32.2107 32.9183L31.1657 34.2908L30.1987 35.7101L29.3097 37.1918L28.4986 38.7359L27.7812 40.3112L27.1417 41.9489L26.5958 43.6178L26.1435 45.3334L25.8472 46.7215L25.6288 48.1409L25.4573 49.5758L25.3481 51.0263L25.3169 52.5236L25.3637 54.2393L25.504 55.9081L25.7224 57.5614L26.0187 59.1679L26.4087 60.7743L26.8766 62.334L27.4225 63.8469L28.0463 65.3286L28.7482 66.7792L29.5124 68.1829L30.3391 69.5398L31.2437 70.85L32.1951 72.1289L33.2245 73.3299L34.3007 74.484L35.4393 75.5914L36.6402 76.6364L37.888 77.619L39.1825 78.5392L40.5239 79.397L63.6073 21.9537Z" fill="url(#paint1_linear_520_6437)"/>
<g filter="url(#filter0_f_520_6437)">
<path d="M56.7602 67.1066L56.2143 67.0754L55.684 66.9662L55.1693 66.779L54.7014 66.5295L43.4249 59.6045L42.9882 59.2925L42.6138 58.9494L42.2863 58.5439L42.0212 58.1228L41.8184 57.6549L41.6624 57.1869L41.5844 56.6879L41.5688 56.1887L41.6 55.6897L41.7092 55.1905L41.8964 54.707L42.1459 54.2235L42.4579 53.7868L42.801 53.4125L43.2065 53.085L43.6276 52.8198L44.0955 52.6171L44.5635 52.4611L45.0626 52.3831L45.5617 52.3675L46.0608 52.3987L46.5599 52.5079L47.0434 52.695L47.5269 52.9446L55.7776 58.0136L67.6313 42.1983L67.99 41.7928L68.3799 41.4497L68.801 41.1689L69.2533 40.935L69.7212 40.7634L70.2203 40.6698L70.7194 40.623L71.2185 40.6542L71.7176 40.7478L72.2012 40.9038L72.6691 41.1221L73.1214 41.4185L73.5269 41.7772L73.87 42.1671L74.1508 42.5883L74.3847 43.0406L74.5563 43.5085L74.6499 44.0076L74.6967 44.5067L74.6655 45.0058L74.5719 45.5049L74.4159 45.9884L74.1976 46.4563L73.9012 46.9086L59.8952 65.5625L59.4897 66.0148L59.0218 66.3891L58.5071 66.7011L57.9612 66.9194L57.3685 67.0598L56.7602 67.1066Z" fill="#407B2D"/>
</g>
<path d="M56.7602 64.2218L56.2143 64.1906L55.684 64.0815L55.1693 63.8943L54.7014 63.6448L43.4249 56.7197L42.6918 56.1582L42.3799 55.8151L41.8808 55.0509L41.5844 54.193L41.5065 53.7407L41.5376 52.8049L41.6156 52.3526L41.9588 51.4948L42.4735 50.7461L42.801 50.4342L43.1597 50.1534L43.9864 49.7011L44.8754 49.4828L45.7956 49.4672L46.2479 49.5452L47.1057 49.8415L47.5269 50.0755L55.7776 55.1288L67.6313 39.3136L67.99 38.9081L68.3643 38.5649L68.7854 38.2842L69.2377 38.0502L69.7212 37.8943L70.2047 37.7851L70.7038 37.7539L71.2029 37.7695L71.702 37.8631L72.1855 38.0191L72.6535 38.2374L73.1058 38.5338L73.5113 38.8925L73.8544 39.2668L74.1352 39.6879L74.3535 40.1402L74.5251 40.6237L74.6187 41.1072L74.6655 41.6063L74.6343 42.1054L74.5563 42.6045L74.4003 43.088L74.1819 43.5559L73.8856 44.0083L59.8796 62.6777L59.4741 63.1301L59.0062 63.5044L58.4915 63.8163L57.9456 64.0347L57.3685 64.175L56.7602 64.2218Z" fill="white"/>
</g>
<defs>
<filter id="filter0_f_520_6437" x="37.5688" y="36.623" width="41.1278" height="34.4844" filterUnits="userSpaceOnUse" color-interpolation-filters="sRGB">
<feFlood flood-opacity="0" result="BackgroundImageFix"/>
<feBlend mode="normal" in="SourceGraphic" in2="BackgroundImageFix" result="shape"/>
<feGaussianBlur stdDeviation="2" result="effect1_foregroundBlur_520_6437"/>
</filter>
<linearGradient id="paint0_linear_520_6437" x1="56.6822" y1="21.1738" x2="56.6822" y2="83.8734" gradientUnits="userSpaceOnUse">
<stop stop-color="#00A609"/>
<stop offset="1" stop-color="#53A33A"/>
</linearGradient>
<linearGradient id="paint1_linear_520_6437" x1="44.4621" y1="21.1738" x2="44.4621" y2="79.3971" gradientUnits="userSpaceOnUse">
<stop stop-color="white" stop-opacity="0.2"/>
<stop offset="1" stop-color="white" stop-opacity="0"/>
</linearGradient>
<clipPath id="clip0_520_6437">
<rect width="111" height="87.8417" fill="white"/>
</clipPath>
</defs>
</svg>

<svg width="111" height="88" fill="none" xmlns="http://www.w3.org/2000/svg"><g clip-path="url(#a)"><path d="m10.759 70.273.951 2.62 2.62.936-2.62.936-.951 2.62-.952-2.62-2.62-.936 2.62-.935.952-2.62Zm22.7-51.874-4.758-6.91.811-1.528 3.556.187.39 8.25Zm-1.763 1.06-6.598-1.217-.405-1.326 2.106-1.902 4.897 4.445Zm2.854-2.152.5-5.927 1.122-.484 1.856 1.7-3.478 4.71Zm58.816 54.432-.39-.047-.343-.156-.296-.218-.219-.296-.171-.469-.031-.265.046-.39.156-.343.219-.296.296-.218.468-.172.265-.031.39.047.343.156.297.218.218.296.171.468.032.265-.094.515-.11.219-.217.296-.297.218-.343.156-.39.047Zm0-2.075-.25.047-.202.14-.14.203-.047.25.046.25.14.202.204.14.25.047.249-.046.203-.14.14-.204.047-.249-.047-.25-.14-.202-.203-.14-.25-.047ZM21.043 34.15l-.046.578-.156.53-.234.483-.312.453-.375.374-.452.312-.483.234-.53.156-.578.047-.577-.047-.53-.156-.484-.234-.452-.312-.374-.374-.312-.453-.234-.483-.156-.53-.047-.578.047-.576.156-.53.234-.484.312-.453.374-.374.452-.312.484-.234.53-.156.577-.047.577.047.53.156.484.234.452.312.375.374.312.453.234.483.155.53.047.578Zm59.783-10.511 2.215-4.539.203-.296.25-.218.311-.156.328-.063.327.016.453.156.296.202.218.25.156.296.063.328-.016.328-.11.343-2.214 4.57-.203.296-.25.218-.311.156-.328.063-.327-.016-.453-.156-.296-.203-.218-.25-.156-.311-.063-.328.016-.327.11-.36Zm4.789 2.822 4.663-1.95.359-.093h.327l.328.094.296.171.234.234.187.312.14.452v.343l-.093.328-.171.296-.235.234-.311.187-4.664 1.95-.359.094h-.327l-.328-.094-.296-.171-.234-.235-.234-.42-.094-.36v-.327l.094-.327.172-.297.234-.234.312-.187Z" fill="#00A609" fill-opacity=".5"/><path d="m88.032 52.524-.031 1.497-.11 1.45-.17 1.435-.22 1.42-.296 1.388-.452 1.715-.546 1.67-.64 1.637-.717 1.575-.81 1.544-.89 1.482-.967 1.42-1.045 1.372-1.107 1.31-1.186 1.248-1.247 1.185-1.31 1.108-1.373 1.044-1.42.968-1.481.889-1.544.81-1.575.718-1.638.64-1.669.545-1.716.453-1.388.296-1.419.218-1.435.172-1.45.11-1.498.03-1.497-.03-1.45-.11-1.435-.172-1.42-.218-1.388-.296-1.716-.453-1.669-.545-1.637-.64-1.575-.717-1.545-.811-1.481-.89-1.42-.966-1.372-1.046-1.31-1.107-1.248-1.185-1.185-1.248-1.108-1.31-1.045-1.373-.967-1.419-.889-1.482-.81-1.544-.718-1.575-.64-1.638-.546-1.669-.452-1.715-.296-1.388-.219-1.42-.171-1.435-.11-1.45-.03-1.497.03-1.498.11-1.45.171-1.435.219-1.42.296-1.388.452-1.715.546-1.67.64-1.637.717-1.575.811-1.544.89-1.482.966-1.42 1.045-1.372 1.108-1.31 1.185-1.248 1.248-1.185 1.31-1.107 1.373-1.045 1.419-.967 1.481-.89 1.545-.81 1.575-.718 1.638-.64 1.668-.545L49.492 22l1.388-.296 1.42-.218 1.434-.172 1.45-.109 1.498-.031 1.497.031 1.451.11 1.435.17 1.42.22 1.387.296 1.716.452 1.669.546 1.638.64 1.575.717 1.544.81 1.482.89 1.419.967 1.372 1.045 1.31 1.107 1.248 1.185 1.186 1.248 1.107 1.31 1.045 1.373.967 1.42.89 1.48.81 1.545.718 1.575.64 1.638.545 1.669.452 1.715.297 1.389.218 1.419.172 1.435.109 1.45.031 1.498Z" fill="url(#b)"/><path d="m63.607 21.954-1.684-.344-1.716-.233-1.747-.156-1.793-.047-1.498.031-1.45.11-1.435.17-1.42.22-1.387.296-1.716.452-1.67.546-1.637.64-1.575.717-1.544.81-1.482.89-1.42.967-1.372 1.045-1.31 1.107-1.247 1.185-1.186 1.248-1.107 1.31-1.045 1.373-.967 1.42-.89 1.48-.81 1.545-.718 1.575-.64 1.638-.545 1.669-.453 1.715-.296 1.389-.218 1.419-.172 1.435-.109 1.45-.031 1.498.047 1.715.14 1.67.218 1.652.297 1.607.39 1.606.468 1.56.546 1.513.623 1.482.702 1.45.764 1.404.827 1.357.905 1.31.951 1.279 1.03 1.2 1.076 1.155 1.138 1.107 1.201 1.045 1.248.983 1.294.92 1.342.858 23.083-57.443Z" fill="url(#c)"/><g filter="url(#d)"><path d="m56.76 67.107-.546-.032-.53-.109-.515-.187-.468-.25-11.276-6.924-.437-.313-.374-.343-.328-.405-.265-.421-.203-.468-.156-.468-.078-.5-.015-.498.031-.5.11-.498.186-.484.25-.483.312-.437.343-.374.405-.328.422-.265.468-.203.468-.156.499-.078.499-.016.499.032.499.109.483.187.484.25 8.25 5.069 11.854-15.816.359-.405.39-.343.421-.281.452-.234.468-.172.5-.093.498-.047.5.031.499.094.483.156.468.218.452.297.406.358.343.39.28.421.235.453.171.468.094.499.047.499-.032.499-.093.499-.156.483-.218.468-.297.453-14.006 18.654-.405.452-.468.374-.515.312-.546.218-.593.14-.608.048Z" fill="#407B2D"/></g><path d="m56.76 64.222-.546-.031-.53-.11-.515-.187-.468-.25-11.276-6.924-.733-.562-.312-.343-.5-.764-.296-.858-.078-.452.032-.936.078-.452.343-.858.514-.749.328-.312.359-.28.826-.453.89-.218.92-.016.452.078.858.297.42.233 8.252 5.054L67.63 39.314l.359-.406.374-.343.421-.28.453-.235.483-.156.484-.109.499-.031.499.016.499.093.484.156.467.218.453.297.405.358.343.375.281.42.218.453.172.484.094.483.046.5-.03.498-.079.5-.156.483-.218.468-.296.452-14.006 18.67-.406.452-.468.374-.514.312-.546.219-.578.14-.608.047Z" fill="#fff"/></g><defs><linearGradient id="b" x1="56.682" y1="21.174" x2="56.682" y2="83.873" gradientUnits="userSpaceOnUse"><stop stop-color="#00A609"/><stop offset="1" stop-color="#53A33A"/></linearGradient><linearGradient id="c" x1="44.462" y1="21.174" x2="44.462" y2="79.397" gradientUnits="userSpaceOnUse"><stop stop-color="#fff" stop-opacity=".2"/><stop offset="1" stop-color="#fff" stop-opacity="0"/></linearGradient><clipPath id="a"><path fill="#fff" d="M0 0h111v87.842H0z"/></clipPath><filter id="d" x="37.569" y="36.623" width="41.128" height="34.484" filterUnits="userSpaceOnUse" color-interpolation-filters="sRGB"><feFlood flood-opacity="0" result="BackgroundImageFix"/><feBlend in="SourceGraphic" in2="BackgroundImageFix" result="shape"/><feGaussianBlur stdDeviation="2" result="effect1_foregroundBlur_520_6437"/></filter></defs></svg>
